X:1
T:Ach Gott von Himmel
T:Martin Agricola
T:Source : DDT 34---Leipzig---Breitkopf & Härtel---J.Wolf---1908. First print : Newe Deudsche Geistliche Gesenge---Wittemberg---G.Rhau---1544. Editor : André Vierendeels (02/08/17).
T:Notes : Original clefs : C1, C3, C4, F4 Original note values have been halved Editorial accidentals above the staff 
T:Ach Gott von Himmel
T:©
T:©
T:©
T:©
C:Martin Agricola
Z:©
%%score [ 1 [ 2 3 ] 4 ]
L:1/8
Q:1/4=120
M:2/2
K:F
V:1 treble nm="Soprano" snm="S"
V:2 treble-8 nm="Tenor 1" snm="T 1"
V:3 treble-8 nm="Tenor 2" snm="T 2"
V:4 bass nm="Bass" snm="B"
V:1
 z8 | z4 A4 | B4 A4 | G4 d4 | d4 B4 | A8 | z4 A4 | B4 A4 | G4 c4 | B4 A4 | G2 B4 A2- | %11
w: |Ach|Gott von|Him- mel|sieh dar-|ein|und|lasz dich|des er-|bar- men,|er- bar- *|
w: |Wie|we- nig|sind der|Heil- gen|dein,|ver-|las- sen|sind wir|Ar- men,|wir Ar- *|
"^#" AG G4 F2 |1 G8 :|2 G8- || G4 z4 | z4 G4 | A4 F4 | E4 D4 | F4 G4 | A8 | z8 | F8 | G4 B4 | %23
w: |men.|||Dein|Wort man|läszt nicht|ha- ben|wahr,||des|Glaub ist|
w: ||men.||||||||||
 A4 B4 | G4 F4 | G8- | G4 z4 | z4 G4 | d4 B4 | c4 d4 | c4 B4 | A8- | A8- | A8- | A8 |] %35
w: auch ver-|lo- schen|gar|_|bei|al- len|Men- schen|Kin- *|dern.|_|||
w: ||||||||||||
V:2
 d8 | d4 d4 | d4 f4 | d6 g2- | g2 f3 d e2 | f6 f2 | f4 f4 | d4 z4 |"^#" z2 g4 f2 | %9
w: Ach|Gott von|Him- mel|sieh dar-||ein und|lasz dich|des|er- *|
w: Wie|we- nig|sind der|Heil- *|* * * gen|dein, ver-|las- sen|sind|wir _|
"^-natural" g4 f4 | d2 d3 e f2 | c4 d4 |1 d8 :|2 d2 _e4 dc || B2 c2 d3 c | A2 B2 G4 | F2 f3 e d2- | %17
w: bar- *|men, er- * *|bar- *|men.|* Dein _ _|_ _ _ _|* Wort man|läszt nicht _ _|
w: Ar- *|men, wir _ _|Ar- *||men. * * *||||
 d2 c2 d4 | d8 | d6 f2 | e4 d4 | c4 d4 | d2 d3 c de | f4 z2 d2 | d4 d4 | d8 | d4 g4- | %27
w: _ _ ha-|ben|wahr, der|Glaub _|ist auch|ver- lo- * schen _|gar bei|al- len|Men-|schen Kin-|
w: ||||||||||
 g2 d2 e2 g2- | g2 f2 g4 | z4 g4 | e4 d4 | f6 e2 | f6 ed | !fermata!c8 | d8 |] %35
w: |* * dern,|bei|al- len|Men- schen|Kin- * *||dern.|
w: ||||||||
V:3
 A8 | B4 A4 | G4 d4 | B6 G2 | B3 c d2 B2 | c4 z2 A2 | B4 A4 | G4 c4 | B4 A4 | G4 z2 d2 | %10
w: Ach|Gott von|Him- mel|sieh dar-||ein und|lasz dich|des er-|bar- *|men, er-|
w: Wie|we- nig|sind der|Heil- *|* * * gen|dein, ver-|las- sen|sind wir|Ar- *|men, wir|
 B2 G2 B2 c2 | G4 A4 |1 G8 :|2 G8 || z2 G2 A4 | F4 E4 | D4 F3 G | A6 B2 | A2 F2 B4 | A4 z2 F2 | %20
w: bar- * * *||men.||Dein Wort|man läszt|nicht ha- ben|wahr [nicht|ha- * ben|wahr,] der|
w: Ar- * * *|||men.|||||||
 G4 B4 | A4 B4 | G8 | F4 G2 B2- | B2 AG A4 | G8 | z2 G2 d4 | B4 c4 | d8 | c4 B4 | A6 G2 | A8- | %32
w: Glaub ist|auch ver-|lo-|schen gar _|_ _ _ _||bei al-|len Men-|schen|Kin- *||dern.|
w: ||||||||||||
 A8- | A8- | A8 |] %35
w: _|||
w: |||
V:4
 D,8 | D,4 D,4 | G,4 D,4 | G,8- | G,4 G,4 | F,6 F,2 | B,,4 F,4 |"^#" G,2 G,4 F,2 | G,4 z4 | %9
w: Ach|Gott von|Him- mel|sieh|_ dar-|ein und|lasz dich|des er- bar-|men,|
w: Wie|we- nig|sind der|Heil-|* gen|dein, ver-|las- sen|sind wir Ar-|men,|
 z2 G,2 D,4 | G,6 F,2 |"^b" E,4 D,4 |1 G,,8 :|2 G,,2 C,4 D,2 || _E,4 D,4 | D,4 z4 | z2 D,4 D,2 | %17
w: er- bar-|||men.|* Dein Wort|man _|läszt,|dein Wort|
w: wir Ar-||||men. * *||||
 A,,4 D,4 | D,4 G,,2 G,,2 | D,6 D,2 | C,4 B,,4 | F,4 B,,4 | z2 B,6 | C4 B,2 G,2- | G,2 F,E, D,4 | %25
w: man läszt|nicht ha- ben|wahr der|Glaub _|ist auch|ist-|auch ver- lo-|* schen _ gar|
w: ||||||||
 z2 G,2 B,4- | B,4 G,4- | G,4 E,4 | D,4 G,4 | A,4 G,4 | z8 | D,6 C,2 | D,8 | !fermata!A,,8 | D,8 |] %35
w: bei al-|* len|_ Men-|schen Kin-|* dern,||[Men- *|schen]|Kin-|dern.|
w: ||||||||||

